X:1
T: Deceiver
C: R-64
M: C|
Z:
R: reel
K: D
DE| "D"FEFE DEFD| "G"G2B2 "D"A2Bc| d2e2 fafd| "A"edcB AGFE|
    "D"FEFE DEFD| "G"G2B2 "D"A2Bc| d2e2 fafa| "A"efec "D"d2:|
|:\
ef| "A"g2f2 edcd|    eg2f e2ef| g2f2 efed| "(A7)"cdcB AGFE|
    "D"FEFE DEFD| "G"G2B2 "D"A2Bc| d2e2 fafa| "A"efec "D"d2:|
%
